X:1
T:Binorie
M:4/4
L:1/4
K:C
 G| A A3/4- G/4 E E| c B3/4 A/4 B e| A3/2 c/2 ED/2-E/2| G A z|G/2-A/2|\
 c c3/4 c/4- d c3/4 d/4-| e A3/4 G/4- G E/2G/2| A A/2c/2 E D3/4 E/4|\
 G- A c||
